X:67
T:Kreupelen Duynen
C:Traditioneel
O:Diest (Vlaanderen)
Z:Bert Van Vreckem <http://flanders.blackmill.net/music/>
M:2/4
L:1/8
K:C
!segno!C2 E>D|C2 D>E|F>E F>G|F2 E2|
w:Vi-va't ple-zier en het wa-ter van den De-mer
G2 F>E|D2E>F|G2G2|[1C2 z2:|[2C2 EF|
w:Vi-va't ple-zier en het gil-de-bier bier. Kreu-p'len
|:G(A/G/) FE|Fz DE|F(G/F/) ED|Ez EF|
w:Duy-nen_ was zo zat, Kreu-p'len Duy-nen_ was zo zat, Kreu-p'len
GG FE|AF ED|G2G2|[1Cz EF:|[2C2 z2!segno!|]
w:Duy-nen was zo zat, en hij viel op zijn gat. Kreu-p'len gat.

